X: 27
T:Lndler aus Maria Taferl #1
M:3/4
L:1/8
C:trad
S:Sonnleithnersammlung 1819
B:Pichler/Fritz: "Wer tanzt nach meiner Pfeife "
N:
K:G
B2|d2 BG A2|B2 G2 B2 |d2 BG A2 |[G4B4]  Bc|
d2 BG A2 |B2 G2 Bc|ed BG [D2A2]|[B,4G4] :|
|:g2|g2 ec e2|d2 G2 B2|g2 ec e2 |d4  Bc|
d2 BG [D2A2]|[G2B2] [G,2G2] Bc|ed BG [D2A2]|[B,4G4]  :|]
